!!!COM: Palestrina, Giovanni Perluigi da
!!!OPR: O Regem coeli
!!!OTL: Agnus I
**kern	**kern	**kern	**kern
*Ibass	*Itenor	*Icalto	*Icant
!Bassus	!Tenor	!Altus	!Cantus
*clefF4	*clefGv2	*clefG2	*clefG2
*k[b-]	*k[b-]	*k[b-]	*k[b-]
*G:dor	*G:dor	*G:dor	*G:dor
*M4/2	*M4/2	*M4/2	*M4/2
=1	=1	=1	=1
0r	0r	1a	0r
.	.	[1g	.
=2	=2	=2	=2
0r	0r	2g]	1r
.	.	2f	.
.	.	1b-	1dd
=3	=3	=3	=3
0r	0r	1a	1.cc
.	.	2r	.
.	.	2g	2b-
=4	=4	=4	=4
0r	0r	2g	1ee-
.	.	2a	.
.	.	2.b-	1dd
.	.	4a	.
=5	=5	=5	=5
0r	0r	4g	2r
.	.	4f	.
.	.	2.g	1dd
.	.	4f	.
.	.	2e	2ee
=6	=6	=6	=6
0r	1d	2d	1.ff
.	.	2f	.
.	[1c	2g	.
.	.	2a	4ee-
.	.	.	4dd
=7	=7	=7	=7
0r	2c]	2g	2ee-
.	2B-	2.b-	1dd
.	1e-	.	.
.	.	4a	.
.	.	[2g	2cc
=8	=8	=8	=8
0r	1d	2g]	2b-
.	.	4f	4a
.	.	4e	4g
.	2r	2.f	[1a
.	2d	.	.
.	.	4e	.
=9	=9	=9	=9
0r	2d	2d	1a]
.	2e	2c#	.
.	1f	1d	2r
.	.	.	[2dd
=10	=10	=10	=10
1A	2.e	0r	2dd]
.	.	.	1cc
.	4f	.	.
[1G	[1g	.	.
.	.	.	4b-
.	.	.	4a
=11	=11	=11	=11
2G]	2g]	2r	2b-
2F	2c	2f	4a
.	.	.	4g
1B-	1d	2f	4f
.	.	.	4d
.	.	2g	[2dd
=12	=12	=12	=12
1A	2e	2.a	4dd]
.	.	.	4cc
.	2c	.	2cc
.	.	4g	.
2r	1d	2f	2a
[2G	.	2g	[2dd
=13	=13	=13	=13
2G]	0r	1e	2dd]
2A	.	.	2cc#
2.B-	.	1d	[1dd
4A	.	.	.
=14	=14	=14	=14
4G	2r	2r	1dd]
4F	.	.	.
2.G	1d	2B-	.
.	.	2B-	1r
4F	.	.	.
2E	2e	2c	.
=15	=15	=15	=15
0D	2.f	2.d	1r
.	4e	4e	.
.	4d	[1f	1dd
.	4c	.	.
.	[2B-	.	.
=16	=16	=16	=16
1F	2B-]	1f]	1.cc
.	2A	.	.
2.E-	2G	1r	.
.	[2B-	.	2b-
4D	.	.	.
=17	=17	=17	=17
1C	2B-]	1r	1ee-
.	2A	.	.
[1BB-	1B-	2r	1dd
.	.	[2f	.
=18	=18	=18	=18
1BB-]	2r	2f]	2r
.	1B-	2f	1dd
1r	.	1g	.
.	2c	.	2ee
=19	=19	=19	=19
1r	2.d	2f	2.ff
.	.	2d	.
.	4c	.	4ee-
2r	2B-	2.g	4dd
.	.	.	4cc
[2G	[2d	.	[2b-
.	.	4f	.
=20	=20	=20	=20
2G]	2d]	1e	2b-]
2A	2c#	.	4a
.	.	.	4g
2.B-	[1d	1d	1f
4A	.	.	.
=21	=21	=21	=21
4G	1d]	2r	2g
4F	.	.	.
2.G	.	2B-	2.b-
.	1G	2B-	.
4F	.	.	4a
2E-	.	2c	[2g
=22	=22	=22	=22
1D	1A	1.d	2g]
.	.	.	2f#
1G	[1G	.	1g
.	.	4c	.
.	.	4B-	.
=23	=23	=23	=23
0C	1G]	2.c	2r
.	.	.	2cc
.	.	4d	.
.	1r	1e-	2cc
.	.	.	2cc
=24	=24	=24	=24
1G	2r	2d	2b-
.	2G	2g	2.dd
1r	2G	2g	.
.	.	.	4cc
.	2G	2g	2b-
=25	=25	=25	=25
2r	0d	2f	1a
2D	.	2.a	.
2D	.	.	1r
.	.	4g	.
2D	.	2f	.
=26	=26	=26	=26
1A	2.c	2.e	1r
.	4d	4f	.
2G	2e	2g	2r
2F	[2f	[2a	2dd
=27	=27	=27	=27
1B-	2f]	2a]	2dd
.	4e	2g	2dd
.	4d	.	.
1A	2f	1a	1cc
.	2e	.	.
=28	=28	=28	=28
0r	2.d	2r	2.ff
.	.	2d	.
.	4c	.	4ee
.	1B-	2d	4dd
.	.	.	4cc
.	.	2d	[2dd
=29	=29	=29	=29
0r	1A	1a	2dd]
.	.	.	2cc
.	1r	2g	2b-
.	.	2f	2a
=30	=30	=30	=30
0r	2r	2.b-	2.g
.	2G	.	.
.	.	4a	4a
.	2G	4g	1b-
.	.	4f	.
.	2G	[2g	.
=31	=31	=31	=31
2r	0d	2g]	1a
2D	.	4f	.
.	.	4e	.
2D	.	1f	2r
2D	.	.	2a
=32	=32	=32	=32
1A	1c	2.e	2a
.	.	.	2a
.	.	4f	.
2G	2B-	2g	[1dd
2F	[2f	[2a	.
=33	=33	=33	=33
1B-	2f]	2a]	1dd]
.	4e	2g	.
.	4d	.	.
1A	2e	2a	1cc
.	2c	2e	.
=34	=34	=34	=34
1r	2.d	1f	2b-
.	.	.	1a
.	4c	.	.
2r	1B-	2.d	.
[2d	.	.	2g
.	.	4e	.
=35	=35	=35	=35
2d]	1A	2f	1.a
2c	.	4e	.
.	.	4d	.
2A	1r	1e	.
2c	.	.	4g
.	.	.	4f
=36	=36	=36	=36
2B-	2r	1d	2.g
2G	1d	.	.
.	.	.	4f
1A	.	1r	1e
.	2c	.	.
=37	=37	=37	=37
1F	2A	1r	1f
.	2c	.	.
1G	2B-	2r	1d
.	2G	[2g	.
=38	=38	=38	=38
1D	1A	2g]	2r
.	.	2f	1dd
1r	1r	2d	.
.	.	[2f	2cc
=39	=39	=39	=39
0r	1r	4f]	2a
.	.	4e-	.
.	.	2c	2cc
.	2r	2d	2b-
.	[2g	2e-	2g
=40	=40	=40	=40
0r	2g]	2.d	1a
.	2f	.	.
.	.	4e	.
.	2d	4f	1a
.	.	4g	.
.	2f	[2a	.
=41	=41	=41	=41
0r	2e-	4a]	2b-
.	.	4g	.
.	2c	1g	2cc
.	2.d	.	1a
.	.	2f#	.
.	4c	.	.
=42	=42	=42	=42
2r	2B-	1g	0g
1c	2c	.	.
.	2.G	2r	.
2B-	.	[2g	.
.	4A	.	.
=43	=43	=43	=43
2G	4B-	4g]	0r
.	4c	4f	.
2B-	2.d	2d	.
2A	.	2e	.
.	4c	.	.
2F	[2c	2f	.
=44	=44	=44	=44
2.G	2c]	2e	0r
.	2B-	2.d	.
4F	.	.	.
2E	2G	.	.
.	.	4c	.
2F	2A	[2c	.
=45	=45	=45	=45
1D	1F	2c]	2r
.	.	2B	1ff
1C	[1G	2c	.
.	.	[2g	2ee-
=46	=46	=46	=46
2r	1G]	4g]	2.dd
.	.	4f	.
1G	.	2d	.
.	.	.	4cc
.	2r	2e	2b-
2F	[2d	[2f	2a
=47	=47	=47	=47
2D	2d]	2f]	2b-
2F	2A	2c	2.a
2E-	2B-	1e-	.
.	.	.	4g
2C	2c	.	[2g
=48	=48	=48	=48
1D	1A	1d	2g]
.	.	.	2f#
[1G	[1G	[1d	[1g
=49	=49	=49	=49
1G_	1G_	1d_	1g_
1G_	1G_	1d_	1g_
=50	=50	=50	=50
1G]	1G]	1d]	1g]
==	==	==	==
*-	*-	*-	*-
!!!CDT: 1525/^1526/-1594/2/2
!!!OCY: Italia
!!!AGN: Mass (Parody)
!!!AST: renaissance, vocal
!!!ASW: Motet 1532 (Silva)
!!!PWK: Masses, Book I
!!!RNB: Cadence finals: D
!!!YOR: Le Opere Complete, v. 1, p. 35
!!!YOO: Rome, Italy: Fratelli Scalera
!!!END: 1992//
!!!EED: John Miller
!!!YEC: Copyright 2000, John Miller
!!!YEN: United States of America
!!!YEM: Rights to all derivative electronic formats reserved.
!!!YEM: Refer to licensing agreement for further details.
!!!YEM: This file must be accompanied by the licensing agreement.
!!!YEM: A copy of the licensing agreement may be found at http://www.music-cog.ohio-state.edu/HumdrumDatabases/Palestrina/license.txt
!!!EMD: converted to Humdrum by Bret Aarden
